lib/svgs/at.svg

<svg xmlns="http://www.w3.org/2000/svg" viewBox="0 0 20 20">
    <path fill="#000" fill-rule="evenodd" d="M3 10.26a7.238 7.238 0 0 0 11.32 5.98l-.68-.98c-.98.66-2.14 1.04-3.38 1.04-3.34 0-6.06-2.72-6.06-6.04 0-3.34 2.72-6.08 6.06-6.08 3.26 0 5.64 2.24 5.64 5.36 0 2.3-1.3 3.56-2.52 3.56-.82 0-1.2-.58-.86-1.7l1.36-4.76h-1.46l-.32.7c-.34-.48-.96-.9-1.8-.9-2.56 0-3.98 2.64-3.98 4.82 0 1.74 1.1 2.72 2.42 2.72.92 0 1.7-.48 2.2-1.1.22.76.92 1.38 2.16 1.38 1.84 0 3.98-1.6 3.98-4.72 0-3.78-2.92-6.54-6.84-6.54C6.24 3 3 6.26 3 10.26m5.04.9c0-1.4.9-3.32 2.4-3.32.58 0 1 .24 1.28.52l-.76 2.6c-.32 1.14-1.04 1.66-1.78 1.66-.72 0-1.14-.54-1.14-1.46"/>
</svg>

<svg xmlns="http://www.w3.org/2000/svg" viewBox="0 0 20 20">
    <path fill="#000" fill-rule="evenodd" d="M3,10.26 C3,14.26 6.24,17.5 10.24,17.5 C11.74,17.5 13.14,17.04 14.32,16.24 L13.64,15.26 C12.66,15.92 11.5,16.3 10.26,16.3 C6.92,16.3 4.2,13.58 4.2,10.26 C4.2,6.92 6.92,4.18 10.26,4.18 C13.52,4.18 15.9,6.42 15.9,9.54 C15.9,11.84 14.6,13.1 13.38,13.1 C12.56,13.1 12.18,12.52 12.52,11.4 L13.88,6.64 L12.42,6.64 L12.1,7.34 C11.76,6.86 11.14,6.44 10.3,6.44 C7.74,6.44 6.32,9.08 6.32,11.26 C6.32,13 7.42,13.98 8.74,13.98 C9.66,13.98 10.44,13.5 10.94,12.88 C11.16,13.64 11.86,14.26 13.1,14.26 C14.94,14.26 17.08,12.66 17.08,9.54 C17.08,5.76 14.16,3 10.24,3 C6.24,3 3,6.26 3,10.26 L3,10.26 L3,10.26 L3,10.26 Z M8.04,11.16 C8.04,9.76 8.94,7.84 10.44,7.84 C11.02,7.84 11.44,8.08 11.72,8.36 L10.96,10.96 C10.64,12.1 9.92,12.62 9.18,12.62 C8.46,12.62 8.04,12.08 8.04,11.16 L8.04,11.16 L8.04,11.16 L8.04,11.16 Z"/>
</svg>
